icons/desktop/16/svg/edit-squiggle-16.svg

<svg width="16" height="16" viewBox="0 0 16 16" fill="none" xmlns="http://www.w3.org/2000/svg">
<path d="M8.23975 13.2498C9.10275 13.2498 9.93034 13.5135 10.6323 14.0134C11.0793 14.3314 11.6049 14.4997 12.1538 14.4998H12.4136C12.9626 14.4998 13.49 14.3314 13.936 14.0134L14.8149 13.3884C15.1519 13.1486 15.6209 13.2282 15.8608 13.5662C16.1008 13.9032 16.0221 14.3721 15.6841 14.6121L14.8052 15.2371C14.1032 15.7361 13.2756 16.0008 12.4126 16.0008L12.4136 15.9998H12.1538C11.292 15.9997 10.4641 15.736 9.76221 15.2361C9.31522 14.9181 8.78875 14.7498 8.23975 14.7498H7.76124C7.21224 14.7498 6.68478 14.9181 6.23878 15.2361C5.53588 15.736 4.70903 15.9997 3.8462 15.9998H3.58643C2.72343 15.9998 1.89585 15.7361 1.19385 15.2361L0.315925 14.6121C-0.0210424 14.3721 -0.100748 13.9042 0.139167 13.5662C0.380121 13.2292 0.84808 13.1486 1.18507 13.3884L2.06397 14.0134C2.51097 14.3314 3.03743 14.4998 3.58643 14.4998H3.8462C4.39513 14.4997 4.92171 14.3314 5.36866 14.0134C6.07066 13.5144 6.89824 13.2498 7.76124 13.2498H8.23975Z" fill="black"/>
<path fill-rule="evenodd" clip-rule="evenodd" d="M9.5337 0.552512C10.4523 -0.231002 11.8149 -0.17394 12.6665 0.677512L13.3228 1.33376C14.1209 2.13221 14.2217 3.38016 13.5855 4.28982L13.4478 4.46657C12.3265 5.7793 11.0562 7.14999 9.62257 8.53298C8.42213 9.69087 7.2398 10.7298 6.10206 11.6609L6.10108 11.6619C5.82894 11.8836 5.49355 11.9986 5.15089 11.9988H2.75147C2.33726 11.9988 2.00147 11.663 2.00147 11.2488V8.85036C2.00147 8.51167 2.11336 8.17231 2.34034 7.89626C3.27088 6.75929 4.31026 5.57825 5.46729 4.37868C6.85042 2.9439 8.2198 1.67394 9.5337 0.552512ZM8.66749 3.33669C8.13417 3.8341 7.5943 4.35523 7.05225 4.9031L6.54737 5.4197C5.42074 6.58772 4.40846 7.73662 3.50245 8.84353L3.50147 8.85036V10.4988H5.15479C6.2622 9.59246 7.41198 8.58007 8.58057 7.4529C9.31881 6.74074 10.011 6.03055 10.6626 5.33181L8.66749 3.33669ZM11.606 1.73806C11.3433 1.47556 10.9449 1.42849 10.6343 1.60427L10.5073 1.69314C10.2662 1.89896 10.0234 2.11074 9.77882 2.32693L11.6714 4.2195C11.8876 3.97491 12.1013 3.73393 12.3071 3.49294L12.396 3.36599C12.5718 3.05539 12.5247 2.65701 12.2622 2.39431L11.606 1.73806Z" fill="black"/>
</svg>

<!-- This Source Code Form is subject to the terms of the Mozilla Public
   - License, v. 2.0. If a copy of the MPL was not distributed with this
   - file, You can obtain one at http://mozilla.org/MPL/2.0/. -->
<svg xmlns="http://www.w3.org/2000/svg" width="16" height="16" fill="context-fill" fill-opacity="context-fill-opacity" viewBox="0 0 16 16">
    <path d="M8.24 13.25c.863 0 1.69.264 2.392.763a2.6 2.6 0 0 0 1.522.487h.26a2.6 2.6 0 0 0 1.522-.487l.879-.625a.75.75 0 0 1 .87 1.224l-.88.625a4.1 4.1 0 0 1-2.392.764V16h-.26c-.861 0-1.689-.264-2.39-.764a2.6 2.6 0 0 0-1.523-.486H7.76a2.6 2.6 0 0 0-1.522.486c-.703.5-1.53.764-2.393.764h-.26c-.863 0-1.69-.264-2.392-.764l-.878-.624a.75.75 0 0 1 .87-1.224l.878.625c.447.318.973.487 1.522.487h.26c.55 0 1.076-.169 1.523-.487a4.1 4.1 0 0 1 2.392-.763z" />
    <path fill-rule="evenodd" d="M9.534.553a2.31 2.31 0 0 1 3.132.125l.657.656a2.31 2.31 0 0 1 .262 2.956l-.137.177a57.77 57.77 0 0 1-7.346 7.194A1.5 1.5 0 0 1 5.15 12h-2.4a.75.75 0 0 1-.75-.75V8.85c0-.338.112-.678.34-.954A58 58 0 0 1 9.533.553m-.867 2.784a56 56 0 0 0-1.615 1.566l-.505.517a56 56 0 0 0-3.045 3.424v1.655h1.653a56 56 0 0 0 5.508-5.167zm2.939-1.599a.81.81 0 0 0-.972-.134l-.127.09q-.361.308-.728.633L11.67 4.22q.326-.366.636-.727l.089-.127a.81.81 0 0 0-.134-.972z" clip-rule="evenodd" />
</svg>
